app/assets/images/heroicons/outline/book-open.svg

<svg width="24" height="24" viewBox="0 0 24 24" fill="none" xmlns="http://www.w3.org/2000/svg">
<path d="M12 6.04168C10.4077 4.61656 8.30506 3.75 6 3.75C4.94809 3.75 3.93834 3.93046 3 4.26212V18.5121C3.93834 18.1805 4.94809 18 6 18C8.30506 18 10.4077 18.8666 12 20.2917M12 6.04168C13.5923 4.61656 15.6949 3.75 18 3.75C19.0519 3.75 20.0617 3.93046 21 4.26212V18.5121C20.0617 18.1805 19.0519 18 18 18C15.6949 18 13.5923 18.8666 12 20.2917M12 6.04168V20.2917" stroke="#0F172A" stroke-width="1.5" stroke-linecap="round" stroke-linejoin="round"/>
</svg>

<svg xmlns="http://www.w3.org/2000/svg" fill="none" viewBox="0 0 24 24" stroke-width="1.5" stroke="currentColor" aria-hidden="true" data-slot="icon">
  <path stroke-linecap="round" stroke-linejoin="round" d="M12 6.042A8.967 8.967 0 0 0 6 3.75c-1.052 0-2.062.18-3 .512v14.25A8.987 8.987 0 0 1 6 18c2.305 0 4.408.867 6 2.292m0-14.25a8.966 8.966 0 0 1 6-2.292c1.052 0 2.062.18 3 .512v14.25A8.987 8.987 0 0 0 18 18a8.967 8.967 0 0 0-6 2.292m0-14.25v14.25"/>
</svg>
